X:1
T:Billy Boy
M:2/4
L:1/8
K:C
 d3/2 c/2| B3/2 A/2 B3/2 E/2| E2 DD| A2 AA| A2 d3/2 c/2| B3/2 A/2 B3/2 E/2|\
 E2 D3/2 D/2| G4-| G2 d3/2- c/2| B3/2 c/2 d3/2 d/2| g2 g3/2 e/2| e3/2 d/2 d3/2 B/2|\
 d2 G3/2 A/2| B3/2 B/2(2B3.99999962500005/5.99999925000009B3.99999962500005/5.99999925000009c3.99999962500005/5.99999925000009 d3.99999962500005/5.99999925000009|\
 ed BG| AA GG| G2||
